actions/symbolic/document-save-symbolic.svg

<?xml version="1.0" encoding="UTF-8" standalone="no"?>
<svg
   xmlns:dc="http://purl.org/dc/elements/1.1/"
   xmlns:cc="http://creativecommons.org/ns#"
   xmlns:rdf="http://www.w3.org/1999/02/22-rdf-syntax-ns#"
   xmlns:svg="http://www.w3.org/2000/svg"
   xmlns="http://www.w3.org/2000/svg"
   xmlns:sodipodi="http://sodipodi.sourceforge.net/DTD/sodipodi-0.dtd"
   xmlns:inkscape="http://www.inkscape.org/namespaces/inkscape"
   viewBox="0 0 16 16"
   id="svg2"
   version="1.1"
   inkscape:version="0.91 r13725"
   sodipodi:docname="document-save-symbolic.svg">
  <metadata
     id="metadata10">
    <rdf:RDF>
      <cc:Work
         rdf:about="">
        <dc:format>image/svg+xml</dc:format>
        <dc:type
           rdf:resource="http://purl.org/dc/dcmitype/StillImage" />
      </cc:Work>
    </rdf:RDF>
  </metadata>
  <sodipodi:namedview
     pagecolor="#ffffff"
     bordercolor="#666666"
     borderopacity="1"
     objecttolerance="10"
     gridtolerance="10"
     guidetolerance="10"
     inkscape:pageopacity="0"
     inkscape:pageshadow="2"
     inkscape:window-width="640"
     inkscape:window-height="480"
     id="namedview8"
     showgrid="false"
     inkscape:zoom="41.1875"
     inkscape:cx="3.6783005"
     inkscape:cy="8"
     inkscape:current-layer="svg2" />
  <defs
     id="defs3051">
    <style
       type="text/css"
       id="current-color-scheme">
      .ColorScheme-Text {
        color:#bebebe;
      }
      </style>
  </defs>
  <path
     style="color:#bebebe;fill:currentColor;fill-opacity:1;stroke:none"
     class="ColorScheme-Text"
     d="M 2.5009766,2 C 2.2241262,2 2,2.2241562 2,2.5009766 L 2,13.499023 C 2,13.775874 2.2241262,14 2.5009766,14 L 13.499023,14 C 13.775874,14 14,13.775874 14,13.499023 L 14,4.8300782 C 14,4.6971682 13.94754,4.5695914 13.853516,4.4755859 L 11.524414,2.1464844 C 11.43041,2.0524844 11.302901,2 11.169922,2 L 2.5009766,2 Z m 1.4780273,1.1455078 6.8833011,0 0,3.675293 -6.8833011,0 0,-3.675293 z M 8.156738,3.5 C 8.0704333,3.5 8,3.5805458 8,3.6801758 L 8,6.3198242 C 8,6.4194842 8.0704333,6.5 8.156738,6.5 l 1.186524,0 C 9.4295667,6.5 9.5,6.4194842 9.5,6.3198242 l 0,-2.6396484 C 9.5,3.5805458 9.4295667,3.5 9.343262,3.5 l -1.186524,0 z"
     id="path6"
     inkscape:connector-curvature="0" />
</svg>

<svg xmlns="http://www.w3.org/2000/svg" viewBox="0 0 16 16">
  <path fill="#bebebe" d="M2.501 2A.5.5 0 0 0 2 2.501v10.998a.5.5 0 0 0 .501.501h10.998a.5.5 0 0 0 .501-.501V4.83a.501.501 0 0 0-.146-.354l-2.33-2.33A.501.501 0 0 0 11.17 2H2.5zm1.478 1.146h6.883V6.82H3.98V3.146zm4.178.354C8.07 3.5 8 3.58 8 3.68v2.64c0 .1.07.18.157.18h1.186c.087 0 .157-.08.157-.18V3.68c0-.1-.07-.18-.157-.18z"/>
</svg>
